src/assets/icons/publictransport/svgmap/nvvLegendeTram.svg

<?xml version="1.0" encoding="UTF-8"?>
<svg width="25px" height="25px" viewBox="0 0 25 25" version="1.1" xmlns="http://www.w3.org/2000/svg" xmlns:xlink="http://www.w3.org/1999/xlink">
    <title>Verkehr/NVV/nvvLegendeTram</title>
    <g id="Assets" stroke="none" stroke-width="1" fill="none" fill-rule="evenodd">
        <g id="Tram-NVV" transform="translate(0.000000, 0.000000)">
            <rect id="Rectangle" x="0" y="0" width="25" height="25"></rect>
            <circle id="Oval" fill="#C1001F" cx="12.4999864" cy="12.4999922" r="12.5000015"></circle>
            <path d="M12.2991722,10.9280815 C13.6382982,10.9280815 14.2283933,11.6560797 14.2815563,12.3994976 L14.2855942,12.5110369 L14.2855942,15.8999466 L12.9239911,15.8999466 L12.8570805,15.2533577 C12.5667509,15.7886705 12.0088426,15.9670442 11.4956053,15.9670442 C10.6251916,15.9670442 10.0895229,15.4542038 10.0895229,14.473212 C10.0895229,13.4068777 10.824675,12.911744 12.3729435,12.8707047 L12.5891183,12.867912 L12.8346491,12.867912 L12.8346491,12.7118829 C12.8346491,12.265757 12.6115497,12.0429494 12.0088426,12.0429494 C11.492346,12.0429494 11.0741671,12.1085214 10.7545072,12.1974114 L10.6028881,12.2436039 L10.6028881,11.1733614 C10.9153295,11.0841107 11.5625159,10.9280815 12.2991722,10.9280815 Z M10.1342579,10.9503623 L10.1342579,12.4442584 C10.0226762,12.4220415 9.86648742,12.4220415 9.75477795,12.4220415 C9.04068087,12.4220415 8.68344061,12.8455674 8.68344061,13.6928747 L8.68344061,13.6928747 L8.68344061,15.8999466 L7.03201921,15.8999466 L7.03201921,11.0841107 L8.48258083,11.0841107 L8.57185894,12.0429494 C8.83982109,11.1733614 9.30838739,10.9503623 10.0448519,10.9503623 L10.0448519,10.9503623 L10.1342579,10.9503623 Z M20.8692318,10.9502984 C21.7622686,10.9502984 22.3425444,11.5746704 22.3425444,12.5556622 L22.3425444,12.5556622 L22.3425444,15.8999466 L20.7129792,15.8999466 L20.7129792,13.0015966 C20.7129792,12.6002876 20.5123111,12.4220415 20.1998697,12.4220415 C19.7534152,12.4220415 19.5747951,12.7563167 19.5747951,13.1577534 L19.5747951,13.1577534 L19.5747951,15.8999466 L17.9900926,15.8999466 L17.9900926,13.0015966 C17.9900926,12.6002876 17.7894246,12.4220415 17.477047,12.4220415 C17.0305287,12.4220415 16.8519085,12.7563167 16.8519085,13.1577534 L16.8519085,13.1577534 L16.8519085,15.8999466 L15.2227268,15.8999466 L15.2227268,11.0841107 L16.7849979,11.0841107 L16.7849979,11.9314179 C16.874276,11.3071098 17.4322482,10.9502984 18.1242335,10.9502984 C18.7269406,10.9502984 19.1955708,11.2847652 19.4186063,11.7976057 C19.6641371,11.3071098 20.1106555,10.9502984 20.8692318,10.9502984 Z M7.56743226,9.03294022 L7.56743226,10.3483349 L5.93825051,10.3483349 L5.93825051,15.8998828 L4.15281609,15.8998828 L4.15281609,10.3483349 L2.65745565,10.3483349 L2.65745565,9.03294022 L7.56743226,9.03294022 Z M12.8345852,13.6258409 L12.7231953,13.6258409 C11.8081106,13.6258409 11.5178449,13.8490315 11.5178449,14.4060505 C11.5178449,14.8300233 11.7408804,15.0305501 12.0536414,15.0305501 C12.4058969,15.0305501 12.7773835,14.8576469 12.8286047,14.2794705 L12.8345852,14.1387452 L12.8345852,13.6258409 Z" id="Combined-Shape" fill="#FFFFFF" fill-rule="nonzero"></path>
        </g>
    </g>
</svg>

<svg xmlns="http://www.w3.org/2000/svg" width="25" height="25" viewBox="0 0 25 25">
  <g fill="none" fill-rule="evenodd">
    <path d="M0 0h25v25H0z"/>
    <circle cx="12.5" cy="12.5" r="12.5" fill="#C1001F"/>
    <path fill="#FFF" fill-rule="nonzero" d="M12.2992 10.928c1.3391 0 1.9292.728 1.9824 1.4715l.004.1115V15.9H12.924l-.067-.6466c-.2902.5353-.8482.7136-1.3614.7136-.8704 0-1.406-.5128-1.406-1.4938 0-1.0663.735-1.5615 2.2833-1.6025l.2162-.0028h.2455v-.156c0-.4461-.223-.669-.8258-.669-.5165 0-.9346.0656-1.2543.1545l-.1516.0462v-1.0702c.3124-.0893.9596-.2453 1.6963-.2453Zm-2.165.0224v1.4939c-.1115-.0223-.2677-.0223-.3794-.0223-.7141 0-1.0714.4236-1.0714 1.2709v2.207H7.032v-4.8158h1.4506l.0893.9588c.268-.8695.7365-1.0925 1.473-1.0925h.0894Zm10.735-.0001c.893 0 1.4733.6244 1.4733 1.6054v3.3442H20.713v-2.8983c0-.4013-.2007-.5796-.5131-.5796-.4465 0-.6251.3343-.6251.7358v2.7421h-1.5847v-2.8983c0-.4013-.2007-.5796-.513-.5796-.4466 0-.6252.3343-.6252.7358v2.7421h-1.6292v-4.8158h1.5623v.8473c.0893-.6243.6472-.9811 1.3392-.9811.6027 0 1.0714.3345 1.2944.8473.2455-.4905.692-.8473 1.4506-.8473ZM7.5674 9.0329v1.3154H5.9383V15.9H4.1528v-5.5516H2.6575V9.033h4.91Zm5.2672 4.593h-.1114c-.915 0-1.2054.2231-1.2054.7802 0 .424.223.6245.5358.6245.3523 0 .7238-.173.775-.7511l.006-.1408v-.5129Z"/>
  </g>
</svg>
